packages/foundations/assets/icons/functional/images/environment/water_drop_16_filled.svg

<svg width="16" height="16" viewBox="0 0 16 16" fill="none" xmlns="http://www.w3.org/2000/svg">
<g clip-path="url(#clip0_2204_3028)">
<path fill-rule="evenodd" clip-rule="evenodd" d="M11.5462 5.91714C11.5462 5.91714 9.80613 3.32704 9.0136 2.1375C8.9631 2.06249 8.9026 1.99849 8.83509 1.94649C8.61158 1.72648 8.30957 1.59998 7.98956 1.59998H7.98706C7.58404 1.60098 7.21003 1.80198 6.98602 2.1375C6.19449 3.32504 4.45892 5.90864 4.45942 5.90864C3.57789 7.18469 3.13037 8.38924 3.13037 9.48928C3.13037 12.2894 5.22395 14.4 8.00006 14.4C10.7762 14.4 12.8698 12.2889 12.8698 9.48928C12.8698 8.38924 12.4217 7.18519 11.5462 5.91714Z" fill="#1A1C1F"/>
</g>
<defs>
<clipPath id="clip0_2204_3028">
<rect width="16" height="16" fill="white"/>
</clipPath>
</defs>
</svg>

<svg xmlns="http://www.w3.org/2000/svg" width="16" height="16" fill="none"><g clip-path="url(#a)"><path fill="#1A1C1F" fill-rule="evenodd" d="M11.546 5.917s-1.74-2.59-2.532-3.78a.8.8 0 0 0-.179-.19A1.2 1.2 0 0 0 7.99 1.6h-.003a1.2 1.2 0 0 0-1.001.538c-.792 1.187-2.527 3.77-2.527 3.77C3.578 7.186 3.13 8.39 3.13 9.49c0 2.8 2.094 4.911 4.87 4.911s4.87-2.111 4.87-4.91c0-1.1-.448-2.305-1.324-3.573" clip-rule="evenodd"/></g><defs><clipPath id="a"><path fill="#fff" d="M0 0h16v16H0z"/></clipPath></defs></svg>
